!!!!SEGMENT: pl-wtm--r-42-n_noskowski-zygmunt--valse.krn
!!!cenid: 18xx:2277
!!!COM: Noskowski, Zygmunt
!!!COM-rismID: pe106604
!!!CDT: 1846/05/02-1909/07/23
!!!CNT: Polish
!!!OTL: Valse
!!!PDT:
!!!AGN: Secular; Waltz
!!!SMS-siglum: PL-Wtm
!!!SMS-shelfmark: R 42/N
!!!SMS-shelfwork: W
!!!SMS-variant:
!!!SMS-altvar:
!!!NIFC-rismSourceID: 1001142381
!!!NIFC-rismChildID: 1001142381
!!!NIFC-islandoraID:
!!!URL-pdf-islandora:
!!!URL-scan:
!!!IIIF:
!!!ONB-nifc:
!!!OMD: Poco Allegro
!!!AIN: 1 empty
!!!key:
**kern	**kern	**fing	**dynam
*part1	*part1	*part1	*part1
*staff2	*staff1	*staff1	*
*Iempty	*Ipiano	*	*
*	*I"[Piano]	*	*
*	*mI"Pianoforte	*	*
*	*I'[P-no]	*	*
*	*mI'pf	*	*
*clefF4	*clefG2	*	*
*k[b-e-]	*k[b-e-]	*	*
*g:	*g:	*	*
*M3/4	*M3/4	*	*
*>[A,A,B,B,C,C,D]	*>[A,A,B,B,C,C,D]	*	*
=1	=1	=1	=1
*>A	*>A	*	*
!!LO:TX:a:t=P:problem:all\left,middle or right:global
!	!	!	!LO:DY:b:rj
4G\	(>4.dd\	3	p
4d 4B-\	.	.	.
.	8cc#X\	2	.
4d 4B-\	4dd\)	.	.
=2	=2	=2	=2
!	!LO:TX:b:Bi:t=cantabile.	!	!
4F#X\	(>4.dd\	.	.
4d 4A\	.	.	.
.	8cc#X\	.	.
4d 4A\	4dd\)	.	.
=3	=3	=3	=3
4G\	(>4.dd\	.	.
4d 4B-\	.	.	.
.	8cc#X\	.	.
4d 4B-\	4dd\)	1	.
=4	=4	=4	=4
4C/	(>4.ee-\	3	.
4c 4A\	.	.	.
.	8ff\	.	.
4c 4A\	4ee-\)	.	.
=5	=5	=5	=5
4D\	(>4.dd\	2	.
4B- 4G\	.	.	.
.	8gg\	.	.
4B- 4G\	4dd\)	.	.
=6	=6	=6	=6
4D\	(>4.cc\	1	.
4c 4F#X\	.	.	.
.	8b-\	3	.
4c 4F#\	4a/)	2	.
=7	=7	=7	=7
4B- 4G\	(<8b-/L	.	.
.	8a/	.	.
4r	8g/	.	.
.	8f#X/	2	.
4r	8g/	1	.
.	8a/J	.	.
!!LO:LB:g=original
=8	=8	=8	=8
2.r	8b-/L	.	.
.	8a/	.	.
.	8g/	.	.
.	8a/	.	.
.	8b-/	.	.
.	8cc/J)	1	.
=9	=9	=9	=9
4G\	(>4.dd\	3	.
4d 4B-\	.	.	.
.	8cc#X\	2	.
4d 4B-\	4dd\)	1	<
=10	=10	=10	=10
4Fn\	(>4.ee-\	.	.
4e- 4A\	.	.	.
.	8dd\	.	.
4e- 4A\	4ee-\)	.	.
=11	=11	=11	=11
4D\	(>4.ff\	.	.
4f 4B-\	.	.	.
.	8een\	.	.
4f 4B-\	4ff\)	1	.
=12	=12	=12	=12
4E-\	(>4.gg\	.	.
4e- 4c\	.	.	.
.	8aa\	.	.
4e- 4c\	4gg\)	.	.
=13	=13	=13	=13
4F\	(>4.ff\	.	.
4d 4B-\	.	.	.
.	8bb-\	.	.
4d 4B-\	4ff\)	.	.
!!LO:LB:g=original
=14	=14	=14	=14
4F\	(>8ee-\L	3	.
.	8dd\	.	.
4e- 4A\	8cc\	.	.
.	8dd\	.	.
4e- 4A\	8ee-\	.	.
.	8cc\J	.	.
=15	=15	=15	=15
4BB-/	8dd\L	.	.
.	8ee-\	.	.
4d 4B-\	8ff\	.	.
.	8gg\	5	.
4d 4B-\	8ff\	4	.
.	8dd\J	2	.
=16	=16	=16	=16
4d 4B-\	4b-\)	1	.
4r	8r	.	.
.	(>8a\L	1	.
4r	8b-\	2	.
.	8cc\J)	1	.
=17:|!|:	=17:|!|:	=17:|!|:	=17:|!|:
*>B	*>B	*	*
!	!	!	!LO:DY:b:rj
4BB-/	4dd\	.	f
4d 4B-\	4.ff^>\	.	.
4d 4B-\	.	.	.
.	8ff\	.	.
=18	=18	=18	=18
4D\	4cc|>\	.	.
4d 4B-\	4.ff 4.dd^>\	3 5	.
4d 4B-\	.	.	.
.	8b-\	2	.
!!LO:LB:g=original
=19	=19	=19	=19
4C/	4b-\	.	.
4e- 4A\	4.ff 4.ee-^>\	4 5	.
4e- 4A\	.	.	.
.	(<8a/	2	.
=20	=20	=20	=20
4F\	4g/)	1	.
4e- 4A\	4.ff 4.ee-^>\	.	.
4e- 4A\	.	.	.
.	8f/	.	.
=21	=21	=21	=21
!	!	!	!LO:DY:b:rj
4C/	(<8f/L	.	p
.	8g/	.	.
4e- 4A\	8a/	.	.
.	8b-/	.	.
4e- 4A\	8g/	.	.
.	8b-/J)	.	.
=22	=22	=22	=22
4F\	(>8a\L	1	.
.	8b-\	.	.
4e- 4A\	8cc\	.	.
.	8dd\	.	.
4e- 4A\	8a\	.	.
.	8cc\J)	5	.
=23	=23	=23	=23
4BB-/	(<4.b-^>/	4	<
4d 4B-\	.	.	.
.	8a/L	.	.
4d 4B-\	8g/	.	.
.	8f/J)	.	.
=24	=24	=24	=24
4F\	(<4.b-^>/	.	.
4d 4B-\	.	.	.
.	8a/L	.	.
4d 4B-\	8g/	.	.
.	8f/J)	.	.
!!LO:LB:g=original
=25	=25	=25	=25
4BB-/	4dd\	.	mf
4d 4B-\	4.ff^>\	.	.
4d 4B-\	.	.	.
.	8ff\	.	.
=26	=26	=26	=26
4D\	4cc\	.	.
4d 4B-\	4.ff 4.dd^>\	.	.
4d 4B-\	.	.	.
.	(>8b-\	2	.
=27	=27	=27	=27
!	!	!	!LO:DY:b:rj
4F\	4a/)	1	f
4d 4A\	4.aa 4.ff^>\	.	.
4d 4A\	.	.	.
.	8gg 8een\	.	.
=28	=28	=28	=28
4AA/	2.ff 2.dd\	.	.
4d 4A\	.	.	.
4d 4A\	.	.	.
=29	=29	=29	=29
4En\	4a/	.	.
4c#X 4G\	4.gg 4.een^>\	.	.
4c# 4G\	.	.	.
.	8ff 8dd\	1 4	.
=30	=30	=30	=30
4AA/	2.een 2.cc#X\	2 3	.
4c#X 4G\	.	.	.
4c# 4G\	.	.	.
!!LO:PB:g=original
=31	=31	=31	=31
4D\	4a/	.	.
4d 4A 4F\	4.ff^>\	.	.
4d 4A 4F\	.	.	.
.	8een\	.	.
=32	=32	=32	=32
4d 4A 4F\	4dd\	.	.
4r	4r	.	.
4r	4dd\	3	.
=33:|!|:	=33:|!|:	=33:|!|:	=33:|!|:
*>C	*>C	*	*
!	!	!	!LO:DY:b:rj
4C/	(>4.ee-\	4	p
4c 4G\	.	.	.
.	8g/)	1	.
4c 4G\	4g/	2	.
=34	=34	=34	=34
4F\	(<4.a/	.	.
4e- 4A\	.	.	.
.	8g/	.	.
4e- 4A\	4f'</)	.	.
=35	=35	=35	=35
4BB-/	(>4.dd\	.	.
4d 4B-\	.	.	.
.	8f/)	.	.
4d 4B-\	4f/	2	.
=36	=36	=36	=36
4D\	(<4.a/	4	.
4d 4B-\	.	.	.
.	8g/	.	.
4d 4B-\	4f/)	.	.
!!LO:LB:g=original
=37	=37	=37	=37
4F\	(<8e-/L	1	.
.	8ccJ 8a/)	2 4	.
4e- 4A\	4cc 4a'</	.	.
4e- 4A\	(>8bn\L	1	.
.	8cc\J)	.	.
=38	=38	=38	=38
4F\	(>8cc\L	.	.
.	8ggJ 8ee-\)	.	.
4e- 4A\	4gg 4ee-'>\	.	.
4e- 4A\	4gg 4ee-'>\	.	.
=39	=39	=39	=39
4BB-/	(>8b-\L	1	.
.	8ggJ 8dd\)	2 5	.
4d 4B-\	4gg 4dd'>\	.	.
4d 4B-\	(>8een\L	.	.
.	8ff\J)	.	.
=40	=>40	=40	=40
4D\	(8ff\L	.	.
.	8bb-\J)	.	.
4B- 4F\	4bb-'>\	.	.
4B- 4F\	4dd'>\	.	.
=41	=41	=41	=41
4C/	(>4.ee-\	.	.
4c 4G\	.	.	.
.	8g/)	.	.
4c 4G\	4g/	.	.
=42	=42	=42	=42
4C/	(<4.a/	4	.
4A 4D\	.	.	.
.	8g/	.	.
4A 4D\	4f/)	.	.
!!LO:LB:g=original
=43	=43	=43	=43
4BB-/	(>4.dd\	.	.
4G 4D\	.	.	.
.	8d/)	.	.
4G 4D\	4d/	.	.
=44	=44	=44	=44
4GG/	(<4.b-/	3	.
4G 4D\	.	.	.
.	8a/	.	.
4G 4D\	4g/)	.	.
=45	=45	=45	=45
4C/	(<4.g/	4	.
4G 4E-\	.	.	.
.	8f/	.	.
4G 4E-\	4e-/)	.	.
=46	=46	=46	=46
4E-\	4.cc\	5	.
4c 4G\	.	.	.
.	(<8a/L	1	.
4c 4G\	8b-/	.	.
.	8cc/J	.	.
=47	=47	=47	=47
4D\	4.dd\)	1	.
4A 4F#X\	.	.	.
.	(>8ee-\L	.	.
4A 4F#\	8dd\	.	.
.	8ee-\J	.	.
=48	=48	=48	=48
4A 4F#X\	4.dd\	.	.
4r	.	.	.
.	8ee-\L	.	.
4r	8dd\	.	.
.	8ee-\J)	.	.
!!LO:LB:g=original
=49:|!	=49:|!	=49:|!	=49:|!
*>D	*>D	*	*
!	!	!	!LO:DY:b:rj
4G\	(>4.dd\	1	p
4d 4B-\	.	.	.
.	8cc#X\	2	.
4d 4B-\	4dd\)	3	.
=50	=50	=50	=50
4F#X\	(>4.dd\	3	.
4d 4A\	.	.	.
.	8cc#X\	.	.
4d 4A\	4dd\)	.	.
=51	=51	=51	=51
4G\	(>4.dd\	.	.
4d 4B-\	.	.	.
.	8cc#X\	.	.
4d 4B-\	4dd\)	1	.
=52	=52	=52	=52
4C/	(>4.ee-\	3	.
4c 4A\	.	.	.
.	8ff\	.	.
4c 4A\	4ee-\)	.	.
=53	=53	=53	=53
4D\	(>4.dd\	.	.
4B- 4G\	.	.	.
.	8gg\	.	.
4B- 4G\	4dd\)	.	.
=54	=54	=54	=54
4D\	(>4.cc\	.	.
4c 4F#X\	.	.	.
.	8b-\	3	.
4c 4F#\	4a/)	2	.
!!LO:LB:g=original
=55	=55	=55	=55
4B- 4G\	(<8b-/L	.	.
.	8a/	.	.
4r	8g/	.	.
.	8f#X/	.	.
4r	8g/	.	.
.	8a/J	.	.
=56	=56	=56	=56
2.r	8b-/L	.	.
.	8a/	.	.
.	8g/	.	.
.	8a/	.	.
.	8b-/	.	.
.	8cc/J)	.	.
=57	=57	=57	=57
4F#X\	(>4.dd\	3	.
4d 4A\	.	.	.
.	8cc#X\	.	.
4d 4A\	4dd\)	1	.
=58	=58	=58	=58
4En\	(>4.een\	.	<
4c#X 4G\	.	.	.
.	8dd\	.	.
4c# 4G\	4ee\)	.	.
=59	=59	=59	=59
4D\	(>4.ff#X\	.	.
4c 4A\	.	.	.
.	8een\	.	.
4c 4A\	4ff#\)	.	.
=60	=60	=60	=60
4E-X\	(>4.gg\	.	.
4B- 4G\	.	.	.
.	8ff#X\	.	.
4B- 4G\	4gg\)	1	.
!!LO:PB:g=original
=61	=61	=61	=61
!	!	!	!LO:DY:b:rj
4C/	(>4.bb-\	4	f
4A 4G\	.	.	.
.	8aa\	.	.
4A 4G\	4gg\)	.	.
=62	=62	=62	=62
4D\	(>8dd\L	.	.
.	8ee-\	3	.
4c 4F#X\	8dd\	.	>
.	8cc\	.	.
4c 4F#\	8b-\	3	.
.	8a\J)	.	]
=63	=63	=63	=63
!	!	!	!LO:DY:b:rj
4B- 4G\	(<4.g/	.	p
4r	.	.	.
.	8f#X/L	2	.
4r	8g/	1	.
.	8a/J	.	.
=64	=64	=64	=64
2.r	8b-/L	.	.
.	8a/	.	.
.	8g/	.	<
.	8a/	.	.
.	8b-/	.	.
.	8cc/J)	1	[
=65	=65	=65	=65
4AA/	(>4.dd\	.	.
4c 4G\	.	.	.
.	8ee-\L	.	.
4c 4G\	8dd\	.	.
.	8cc\J)	.	.
=66	=66	=66	=66
4D\	(>4.b-\	3	>
4c 4F#X\	.	.	.
.	8cc\L	.	.
4c 4F#\	8b-\	.	]
.	8a\J)	.	.
!!LO:LB:g=original
=67	=67	=67	=67
4B- 4G\	(<4.g/	.	.
4r	.	.	.
.	8f#X/L	2	.
4r	8g/	1	.
.	8a/J	.	.
=68	=68	=68	=68
2.r	8b-/L	.	.
.	8a/	.	.
.	8g/	.	<
.	8a/	.	.
.	8b-/	.	.
.	8cc/J)	1	[[
=69	=69	=69	=69
4BB-/	(>4.dd\	.	.
4d 4F\	.	.	.
.	8ee-\L	.	.
4d 4F\	8dd\	.	.
.	8cc\J)	.	.
=70	=70	=70	=70
4D\	(>4.b-\	3	.
4c 4F#X\	.	.	.
.	8cc\L	.	>
4c 4F#\	8b-\	.	.
.	8a\J)	.	]
=71	=71	=71	=71
!	!	!	!LO:DY:b:rj
4G\	(<4.g/	.	p
4d 4B-\	.	.	.
.	8f#X/	2	.
4d 4B-\	4g/)	3	.
=72	=72	=72	=72
4Fn\	(<4.g/	3	.
4d 4Bn\	.	.	.
.	8f#X/	.	.
4d 4B\	4g/)	.	.
!!LO:LB:g=original
=73	=73	=73	=73
4E-\	(<4.g/	.	.
4c 4G\	.	.	.
.	8f#X/	.	.
4c 4G\	4g/)	.	.
=74	=74	=74	=74
4C/	(<4.g/	.	.
4e- 4G\	.	.	.
.	8f#X/	.	.
4e- 4G\	4g/)	.	.
=75	=75	=75	=75
4d 4B- 4G\	(<8g/L	1	.
.	8a/	.	.
4r	8b-/	.	.
.	8a/	.	.
4r	8g/	.	.
.	8a/J	.	.
=76	=76	=76	=76
4e- 4B- 4E-\	8b-/L	.	.
.	8a/	.	.
4r	8g/	.	.
.	8a/	.	.
4r	8b-/	.	.
.	8a/J	.	.
=77	=77	=77	=77
4d 4B- 4G\	8g/L	.	.
.	8a/	.	.
4r	8b-/	.	.
.	8a/	.	.
4r	8g/	.	.
.	8a/J	.	.
=78	=78	=78	=78
4e- 4B- 4E-\	8b-/L	.	.
.	8a/	.	.
4r	8g/	.	.
.	8a/	.	.
4r	8b-/	.	.
.	8a/J)	.	.
!!LO:LB:g=original
=79	=79	=79	=79
4d 4B- 4G\	(>8g\L	.	.
.	8a\	.	.
4r	8b-\	.	.
.	8cc\	1	.
4r	8dd\	.	.
.	8een\J	.	.
=80	=80	=80	=80
2.r	8ff#X\L	.	.
.	8gg\	1	.
.	8aa\	.	.
.	8bb-\	.	.
.	8aa\	.	.
.	8bb-\J	.	.
=81	=81	=81	=81
2.r	8gg\L	.	.
.	8aa\	.	.
.	8bb-\	.	.
.	8ccc\	.	.
.	8ddd\	.	.
.	8eeen\J	.	.
=82	=82	=82	=82
*	*8va	*	*
2.r	8fff#X\L	.	.
.	8ggg\	.	.
.	8aaa\	.	.
.	8bbb-\	.	.
.	8aaa\	.	.
.	8bbb-\J	.	.
=83	=83	=83	=83
2.r	4ggg\)	.	.
*	*X8va	*	*
.	4r	.	.
.	4r	.	.
!!LO:LB:g=original
=84	=84	=84	=84
4d 4G\	4gg 4b-\	.	.
4r	4r	.	.
4r	4r	.	.
=85	=85	=85	=85
4G\	[>2.g [>2.d [<2.B-/	.	.
4D\	.	.	.
4BB-/	.	.	.
=86	=86	=86	=86
4GG/	4g] 4d] 4B-/]	.	.
4r	4r	.	.
4r	4r	.	.
==	==	==	==
*-	*-	*-	*-
!!!system-decoration: {(s1,s2)}
!!!RDF**kern: > = above
!!!RDF**kern: < = below
!!!RDF**dynam: > = "dim", fontstyle= "bold-italic"
!!!RDF**dynam: < = "cresc", fontstyle= "bold-italic"
!!!RDF**kern: | = vertical stroke
!!!RDF**kern: N = linked
!!!RDF**kern: i = editorial accidental
!!!ENC-modern: Leszek Kubiak
!!!END-modern: 2022-08-18
!!!EED: Wojciech Jakubiak-Danek
!!!EEV: 2021-06-08
!!!ENC: Berenika Jozajtis
!!!END: 2021-05-31
!!!filter-modern: sic -sq | autostem -r | shed -k -e "s/([^a-gA-Gn#X-])[<>]/$1/g" | shed -e "s/LO:DY:(a|b|rj)/LO:dy:$1/L" | shed -e "s/TX(.*):t=P:/tx$1:t=P:/LG" | modori -m
!!!YEC: Copyright 2022 Narodowy Instytut Fryderyka Chopina (https://polishscores.org)
!!!YEM: License CC-BY-4.0 (https://creativecommons.org/licenses/by/4.0)
